X:1
T:The Well-Tempered Clavier Book II - XI
T:BWV 880    (A = 415 Hz)
T:J. S. Bach
%%score { ( 1 4 5 ) | ( 2 3 6 ) }
L:1/8
Q:1/4=184
M:3/2
K:F
V:1 treble nm="Harp"
V:4 treble 
V:5 treble 
V:2 bass 
V:3 bass 
V:6 bass 
V:1
"^Presto""^Praeludium" z efg fedc dcBA | B12- | B4 A4 _A4- | A_AGF G8 | z4 z4 z ABc- | %5
 c4- cA B2- B4- | B8- BGAB- | B4- BG A2- A4- | Acd_e d8 | e8 f4- | fefg fedc dc=BA | =B8 c4- | %12
 c6 c2 d2 f2 | =B2 c2 d4- dGAB | c8- c2 c=B | c12- | c=Bcd cBAG AGFE | F12- | F4 E4 _E4- | %19
 E_EDC D8 | z4 z4 z EFG- | G4- GE F2- F4- | F8- FDEF- | F4- FD E4- E2- | EGAB A8 | =B8 c4- | %26
 ccd_e d8 | e8 f4- | ffga gfed ed^c=B | ^c8 d4- | d2 f2 e2 g2 ^c2 d2- | dd^c=B [Ac]8 | %32
 z ^cde d=cBA BAGF | G12- | G4 F8- | F12- | F4 z4 z ^CDE | ^CEFG A8- | AGBA GF E2- EEFG- | %39
 GGFE F8- | FFGA B8- | BBAG A8- | AABc d8- | ddcB c8- | ccde f8- | ffed e8- | e4 d8- | d12- | %48
 ddef edc=B cBA^G | A12- | Agab agfe fed^c | defg fed^c d=cBA | Bcd_e dcBA BA^G_G | %53
 ^G2 E2 z2 =B2- [Bd]4- | [Bd]2 c2- cc=BA B4 | A12 | z efg fedc dcBA | B12- | B4 A4 _A4- | %59
 A_AGF G8 | z4 z4 z ABc- | c4- cA B4- B2- | BGAB cd _e2- e4- | e4 d2 c2 d4- | d4 c4- c2 d_e | %65
{B} A8 B4- | BABc BAGF GFED | E8 F4- | F4- F2 F2 G2 AB | E2 F2 G4- GCDE | F8- F2 FE | %71
 !fermata!F12 |[M:6/16] z3 |"^Fuga" z3/2 F/E/F/ | c z/ A/G/A/ | d z/ c/d/e/ | f/e/d/ c/d/B/ | %77
 A/G/F/ EB/ | Ad/ Gd/ | cf/ =Bf/ | e/d/c/ g=B/ | c3/2- c/B/A/ | B/c/d/ _e3/2- | e/d/c/ d/=e/f/ | %84
 g3/2- g/f/e/ | f/g/a/ b3/2- | b/a/g/ a/b/a/ | g3/2- g/c'/e/ | f3/2 e/f/g/ | cf/ fe/ | f z/ z3/2 | %91
 g/f/e/ d/_e/c/ | B/A/G/ Ad/ | Gd/ Ae/- | e/^c/d/- d/=B/=c/- | c/e/f/ =B/c/d/ | Gc/ c=B/ | %97
 cG/ B3/2 | A3/2- Ad/ | G3/2- GG/ | c3/2- c/c/=B/ | c z/ z3/2 | g/g/e/ d/e/c/ | =B/A/G/ ^c z/ | %104
 a/g/f/ e/f/d/ | ^c/=B/A/ d3/2- | d/c/=B/ c3/2- | c/B/A/ B3/2- | B/c/B/ A/B/G/ | ^F/E/D/ G3/2- | %110
 G/F/E/ F/G/A/ | B3/2- B/A/G/ | A3/2- A/B/c/ | d3/2- d/c/B/ | c3/2- c/d/e/ | f3/2- f/e/d/ | %116
 e3/2- e/f/g/ | a/g/f/ e/f/4e/4d/4c/4 | f3 | _e/g/^f<g- | g3/2 ^f/g/a/ | B/d/c/ B/c/A/ | %122
 G_e/ ^cA/- | A/A/d/ ^c/d/e/ | d/e/f/ B3/2- | B/f/g/ c3/2- | c/B/A/ B z/ | z/ z/ B/ AG/ | %128
 F3/2- F/_E/D/ | C3/2- C/D/_E/ | F3/2- F/G/A/ | B3/2 B/c/d/ | _e3- | e/d/c/d/_e/d/ | c3/2- c/c/f/ | %135
 B3/2- B/B/_e/ | A3/2- A/A/d/ | G3/2- G/G/c/ | F3/2- FB/- | B/G/A/- Ad/ | B3/2 A/B/c/ | %141
 d/c/_e/ d/e/c/ | B3- | B3- | B3/2- B/G/_A/ | _A3/2- A/F/G/ | G3/2- G/E/F/ | F3/2- F/D/E/ | %148
 E z/ _A3/2- | A/G/F<G- | G/F/E/F/c/f/ | B3/2- B/e/g/ | c3/2- c/f/_a/ | _df/ bd/ | cb/ _af/ | %155
 =B/f/g/ a/g/f/- | f/e/_d/- d/c/B/- | B/_A/G/ F/E/F/- | F/D/E/ A/G/A/ | [B_d] z/ c/=d/e/ | %160
 f/e/d/ c/d/B/ | A/F/4G/4A/4B/4c3/2- | c3/2B3/2- | B/>G/A/4B/4 c3/2- | c/>A/B/4c/4 d3/2- | %165
 d/4B/4c/4d/4e/4f/4 g/4f/4e/4d/4c/4B/4 | A/c/B/ c3/2- | cd/ _e3/2 | d3/2- dg/ | e3/2- ea/ | %170
 fd/ A/B/G/ | F3/2 z3/2 |] %172
V:2
 z4 z4 A,4 | D4 B,4 G,B,CD | CB,A,G, A,4 F,4- | F,-F,E,D, E,2 G,2 C2 G,2- | G,2 G,2 ^F,2 B,2 A,4- | %5
 A,2 D,4 G,4 G,2- | G,B,C_D C8- | C8- C_EDC | D4 z2 D6 | C2 z2 z8 | z2 A,6- A,4 | G,4 z4 z =B,CD | %12
 C=B,A,G, A,8- | A,4 G,8 | A,2 z2 z4 z2 G,2- | G,4 z4 z DC=B, | C2 G,2 A,2 E,2 F,2 A,2 | %17
 D,2 E,2 F,4- F,F,G,A, | G,F,E,D, E,4 C,4- | C,-C,=B,,A,, B,,2 D,2 G,2 D,2- | D,4 ^C,2 F,2 E,4- | %21
 E,2 A,,4 D,4 D,2- | D,F,G,_A, G,8- | G,8- G,B,A,G, | A,4 z2 A,6 | G,2 z2 z8 | %26
 A,,E,F,G, F,E,D,C, D,C,B,,A,, | G,,B,CD CB,A,G, A,G,F,E, | D,A,B,C B,A,G,F, G,4- | G,8 z ^CDE | %30
 DCB,A, B,4 A,4- | A,4- A,G,A,B, A,G,F,E, | z4 A,4 D4- | D2 z2 z[I:staff -1] D^C=B, C4- | C4 A,8- | %35
 A,C=B,A, ^G,2 A,2 B,4- | B,[I:staff +1]D,E,F, E,8- | E,4- E,F,E,D, ^C,4- | %38
 C,2 D,2 E,2 F,2 G,2 A,2 | B,2 A,G, A,4- A,CB,A, | B,4- B,2 A,2 G,4- | G,2 F,E, F,2 A,2- A,ED^C | %42
 D4- D2 C2 B,4- | B,2 A,G, A,2 C2- CGFE | F4- F2 E2 D4- | D2 C=B, C4 z[I:staff -1] =BA^G | %46
 A4 =B8- | B12- | B[I:staff +1] z E,2 ^F,2 ^G,2 A,2 =B,2 | C2 A,4 ^C2 D2 A,2- | %50
 A,2 A,2 =B,2 ^C2 D2 E2 | F z z2 z4 z4 | z2 F,2 B,2 C2 D2 C2 | =B,2 z2 z4 z4 | %54
 z4 z A,,=B,,C, D,2 E,2 | F,2 D,2 F,4 E,4 | z4 z4 A,4 | D4 B,4 G,B,CD | CB,A,G, A,4 F,4- | %59
 F,F,E,D, E,2 G,2 C2 G,2- | G,2 G,2 ^F,2 B,2 A,4- | A,2 D,4 G,2- G,^F,G,A, | B,2 z2 A,4 F,GF_E | %63
 DCB,A, A,D,_E,F, E,D,C,B,, | _E,2 D,2 E,8- | E,_E,F,G, F,E,D,C, D,C,B,,A,, | z2 D,2 G,8- | %67
 G,4- G,B,A,G, A,4- | A,4 D,8- | D,4 C,8- | C,2 C,2 B,,4 C,4 | C,12 |[M:6/16] z3 | z3 | z3 | z3 | %76
 z3 | z3 | z3 | z3 | z3 | z3 | z3 | z3 | z3 | z3 | z3/2 F,/E,/F,/ | C z/ A,/G,/A,/ | D z/ C/D/E/ | %89
 F/E/D/ C/D/B,/ | A,/G,/F,/ B,3/2- | B,3/2A,3/2 | G,/F,/E,/ D,/E,/C,/ | =B,,/A,,/G,,/ C,/B,,/C,/ | %94
 F, z/ E,/D,/E,/ | A, z/ G,/A,/=B,/ | C/=B,/A,/ G,/A,/F,/ | C,/D,/B,,/ C,/D,/E,/ | %98
 F,/G,/E,/ D,/E,/F,/ | G,/A,/F,/ E,/F,/G,/ | A,/G,/F,/ G,G,,/ | C/=B,/A,/ G,/A,/F,/ | %102
 E,/D,/C,/ F,3/2- | F,3/2E,3/2 | D,3/2B,,3/2 | A,,3- | A,,3/2 A,,/B,,/C,/ | D,/E,/^F,/ G,=F,/ | %108
 E,3/2_E,3/2 | D,3- | D,3/2- D,/E,/F,/ | G,3/2E,3/2 | F,3/2- F,/G,/A,/ | B,3/2G,3/2 | %114
 A,3/2- A,/B,/C/ | D3/2=B,3/2 | C3/2- C/D/E/ | F/E/D/ C/D/B,/ | A,/G,/F,/ G,/A,/=B,/ | %119
 C/=B,/A,/ G,/_A,/F,/ | _E,/D,/C,/ D,/=E,/^F,/ | G,/F,/_E,/ D,/E,/C,/ | %122
 B,,/A,,/G,,/ A,,/=B,,/^C,/ | D,/C,/B,,/ A,,/B,,/G,,/ | F,,/E,,/D,,/ D, z/ | E, z/ _E, z/ | %126
 D,/E,/F,/ E,/F,/G,/ | A,,B,,/ C,^C,/ | D,3/2- D,/C,/B,,/ | F,3/2- F,_E,/ | D,C,/ B,,A,,/ | %131
 G,,F,,/ _E,,D,,/ | C,,>C,,D,,/_E,,/ | F,,3- | F,,3- | F,,3- | F,,3- | F,, z/ z3/2 | %138
 z3/2 B,,/A,,/B,,/ | F, z/ D,/C,/D,/ | G, z/ F,/G,/A,/ | B,/A,/G,/ F,/G,/_E,/ | %142
 D,/C,/B,,/ B,/C/D/ | _E/D/C/ B,/C/_A,/ | G,F,/ E,D,/ | F, z/ D, z/ | E, z/ F, z/ | %147
 _D, z/ =B,, z/ | C,3- | C,3- | C,3- | C,3- | C,3- | C,3- | C,/D,/E,/ F,/G,/_A,/ | D,,3 | %156
 C,, z/ z C,/- | C, z/ z3/2 | [G,C] z/ F, z/ | B,,/_D,/F,/ B,/A,/G,/ | A,B,/ CC,/ | %161
 F, z/ F,,/E,,/F,,/ | B,, z/ G,,/F,,/G,,/ | C, z/ A,,/G,,/A,,/ | D, z/ B,,/A,,/B,,/ | %165
 E, z/ C,/D,/E,/ | F,/E,/D,/ C,/D,/B,,/ | A,,/B,,/G,,/ F,,/G,,/A,,/ | B,,/C,/A,,/ G,,/_A,,/B,,/ | %169
 C,/D,/B,,/ A,,/B,,/C,/ | D,/C,/B,,/ C,C,,/ | F,,3/2 z3/2 |] %172
V:3
 F,,4 F,8- | F,12- | F,4- F,G,F,E, F,D,C,=B,, | C,8- C,D,C,B,, | A,,4 D,8 | G,,4 B,,4 G,,4 | %6
 C,4 E,4 C,4 | F,4 A,4 F,4 | B,2 A,2 B,8- | B,B,CD CB,A,G, A,G,F,E, | D,6 E,2 F,4- | F,4 z4 E,4- | %12
 E,4- E,G,F,E, D,C,B,,A,, | D,C,=B,,A,, B,,2 G,,2 C,2 _B,,2 | A,,2 G,,2 F,,2 D,,2 G,,4 | %15
 C,4 z4 z4 | z4 C,8- | C,12- | C,4 C,D,C,=B,, C,A,,G,,^F,, | G,,8- G,,A,,G,,F,, | E,,4 A,,8 | %21
 D,,4 F,,4 D,,4 | G,,4 =B,,4 G,,4 | C,4 E,4 C,4 | F,2 E,2 F,8- | F,F,G,A, G,F,E,D, E,D,C,B,, | %26
 x12 | x12 | x12 | z8 F,4- | F,4 z A,G,F, G,F,E,D, | A,2 A,,2- A,,2 z2 z4 | F,12 | E,8 z G,A,_B, | %34
 A,G,F,E, F,E,D,^C, D,=C,=B,,A,, | =B,,4- B,,C,D,E, D,C,B,,A,, | ^G,,12 | G,,8- G,,B,,A,,G,, | %38
 F,,4 G,,4 A,,4 | D,12- | D,D,E,F, G,2 F,2- F,E,D,C, | F,2 F,,2 F,8- | F,F,G,A, B,2 A,2- A,G,F,E, | %43
 A,2 A,,2 A,8- | A,A,=B,C D2 C2- CB,A,G, | C2 C,2 C8 | z EFG FEDC DC=B,A, | %47
 =B,A,^G,^F, G,D,E,=F, E,D,C,=B,, | C,12- | C,2 ^C,2 D,2 E,2 F,2 G,2 | F,12- | %51
 F,G,A,B, A,G,F,E, F,E,D,^C, | D,12- | D,D,E,F, E,D,C,=B,, C,B,,A,,^G,, | A,,F,,E,,^D,, E,,8 | %55
 A,,8- A,,B,,A,,G,, | F,,4 F,8- | F,12- | F,4- F,G,F,E, F,D,C,=B,, | C,8- C,D,C,B,, | A,,4 D,8 | %61
 G,,4 B,,4 D,4 | G,4 z8 | x12 | x12 | x12 | G,,6 A,,2 B,,4- | B,,4 z4 A,,4- | %68
 A,,4 A,,C,B,,A,, B,,A,,G,,F,, | G,,F,,E,,D,, E,,2 C,,2 F,,2 E,,2 | D,,4 z2 G,,2 C,2 C,,2 | %71
 !fermata!F,,12 |[M:6/16] x3 | x3 | x3 | x3 | x3 | x3 | x3 | x3 | x3 | x3 | x3 | x3 | x3 | x3 | %86
 x3 | x3 | x3 | x3 | x3 | x3 | x3 | x3 | x3 | x3 | x3 | x3 | x3 | x3 | x3 | x3 | x3 | x3 | x3 | %105
 x3 | x3 | x3 | x3 | x3 | x3 | x3 | x3 | x3 | x3 | x3 | x3 | x3 | x3 | x3 | x3 | x3 | x3 | x3 | %124
 x3 | x3 | x3 | x3 | x3 | x3 | x3 | x3 | x3 | x3 | x3 | x3 | x3 | x3 | x3 | x3 | x3 | x3 | x3 | %143
 x3 | x3 | x3 | x3 | x3 | x3 | x3 | _A,/ z/ z2 | _A,/G,/F,/E,/G,/B,/- | B,/_A,/G,/ F,/A,/C/- | %153
 C/B,/_A,/ G,/A,/F,/ | x3 | x3 | x3 | x3 | C, z/ C, z/ | B, z/ z3/2 | x3 | x3 | x3 | x3 | x3 | x3 | %166
 x3 | x3 | x3 | x3 | x3 | x3 |] %172
V:4
 x12 | z AGF G8- | G4 F4 F4- | F2 z2 z FED E4 | z4 z =E^FG F4- | FAG^F G3 G D=FED | E4 z DEF E4- | %7
 EGFE F3 F- F4- | F4 z cBA B4 | c8- c4 | z2[I:staff +1] A,2 D8- | D4- D[I:staff -1]FED E4- | %12
 E4 F8- | F4- FFED E4- | EEFG AGFE D4 | C4 z FED E4- | E4 z4 z4 | z EDC D8- | D4 C4 C4- | %19
 C2 z2 z C=B,A, B,4 | z4 z =B,^CD C4- | CED^C D3 D A,=C=B,A, | =B,4 z A,B,C B,4- | %23
 B,DC=B, C3 C- C4- | C4 z GFE F4 | G8- G4 | F2 z2 z cBA B4 | B8 c2 z2 | z4 z4 z[I:staff +1] FED | %29
[I:staff -1] z BAG A4- A4- | A2 A2 G2 B2 E2 F2- | FFED E8 | x12 | z FED E8- | E4 D8- | D12- | %36
 D4 z A,=B,C B,4 | A,4- A,=B,^CD E4- | E2 D2- D3 D ^C4 | D4- DED^C D4- | D4- DDEF G2 E2 | %41
 C4- CGFE F4- | F4- FFGA B2 G2 | E4- EBAG A4- | A4- AA=Bc d2 B2 | G4- Gdc=B c4- | c4 A8 | ^G12- | %48
 G z z2 z4 z4 | z GFE FEFG FED^C | D z z2 z4 z4 | x12 | x12 | z2 E2- [E^G]4- [EG]4- | %54
 [EG]2 ^F2 E4- E3 D- | DDEF ED^C=B, C4 | x12 | z AGF G8- | G4 F4 F4- | F2 z2 z FED E4 | %60
 z4 z =E^FG F4- | FAG^F G3 G- G4- | G z z2 c4- c4- | c4 B2 A2 B2 _A2- | AFG=A G8 | F8- F2 z2 | %66
 x12 | z DCB, C8- | C4 B,8- | B,4- B,B,A,G, A,4- | A,A,B,C DCB,A, z B,3 | B,B,A,G, !fermata!A,8 | %72
[M:6/16] x3 | x3 | x3 | x3 | x3 | z3/2 C/B,/C/ | F z/ E/D/E/ | A z/ G/A/=B/ | c/=B/A/ G/A/F/ | %81
 E/D/C/ D/E/^F/ | G3/2- G/F/_E/ | F/G/A/ B3/2- | B/A/G/ A/=B/^c/ | d3/2- d/c/B/ | c/d/e/ f3/2- | %87
 f/e/d<c- | c/A/B/- B3/2 | AB/ AG/ | c/B/A/ G/A/F/ |[I:staff +1] E/D/C/ ^F3/2 | %92
[I:staff -1] G z/ F3/2- | F3/2E3/2 | A3/2G3/2 | F3- | F/E/F/ ED/ | C3/2- CG/- | GC/ F3/2- | %99
 F=B,/ C/D/E/ | F/G/A<D | E/G/F/ E/F/E/ |[I:staff +1] C[I:staff -1] z/ z3/2 | %103
[I:staff +1] D/C/=B,/ A,/_B,/G,/ | F,/E,/D,/ G,3/2- | G,3/2 F,/E,/D,/ | %106
 E,/^F,/^G,/ A,[I:staff -1] z/ | z3/2[I:staff +1] G,/A,/B,/ | C3- | C3/2 B,/A,/G,/ | %110
 A,/B,/^C/ D3/2- | D/[I:staff -1]C/B,/ C3/2- | C/D/E/ F3/2- | F/E/D/ E3/2- | E/F/G/ A3/2- | %115
 A/G/F/ G3/2- | G/A/=B/ c z/ | x3 | z/ z/ d/ =BG/- | Gc/ =B/c/d/ | c/d/_e<A- | AG/ G^F/ | G3 | %123
 FG/ A z/ | z3/2[I:staff +1] F,/E,/F,/ | x3 |[I:staff -1] D z/ C/D/E/ | F/E/D/ C/D/B,/ | %128
[I:staff +1] A,/G,/F,<B,- | B,/A,/G,/ A,3/2- | A,/[I:staff -1]B,/C/ D3/2- | D/_E/F/ G3/2- | %132
 G/A/B/ cB/ | A3/2B3/2- | B/A/G<A- | A/G/F<G- | G/F/E<F- | F/_E/D<E- | E/D/C/ D3/2 | C3/2F3/2- | %140
 F/D/_E/ z3/2 | x3 | z3/2 D/_E/F/ | G/F/_A/G/A/F/ | E/F/G/ C3/2- | C/[I:staff +1]_A,/B,/ B,3/2- | %146
 B,/G,/_A,/ A,3/2- | A,/F,/G,/ G,3/2 | G,/=B,/C/- C/[I:staff -1]E/F/ | %149
[I:staff +1] B,3/2- B,/E,/G,/ | x3 | x3 | x3 | x3 | F,[I:staff -1] z/ z3/2 | %155
 z3/2[I:staff +1] =B,,3/2 | C,D,/ E,C,/ | F,G,/ _A,3/2 |[I:staff -1] c z/ [CE] z/ | [_DF] z/ z3/2 | %160
 z B/ AG/ | F/ z/ z/ z/ A/_E/ | _E/D/4F/4G/4A/4 B/D/F/ | F/E- E/E/F/ | G/F- F/4c/4B/4A/4G/4F/4 | %165
 G/4 z/4 z/ z/ z3/2 | z3/2 z/ z/ E/ | FB/ A/B/c/- | cF/ B3/2- | BG/ c3/2- | c/A/B/ FE/ | %171
 F3/2 z3/2 |] %172
V:5
 x12 | z4 z FED E4- | E4 C4 D4 | C2 z2 z8 | z CD_E D8- | D4 z8 | x12 | x12 | z4 z2 G2- GAGF | %9
 G8 F4 | x12 | z AGF G4- G4- | G4 z8 | x12 | z8 z F3- | FFGA G8 | x12 | z4 z C=B,A, B,4- | %18
 B,4 G,4 A,4 | x12 | z G,A,B, A,8- | A,4 z8 | x12 | x12 | z4 z2 D2- DEDC | D8 C4- | %26
 C2 z2 z4 z AGF | G8 F2 z2 | x12 |[I:staff +1] E4[I:staff -1] z GFE F4- | F2 z2 z8 | x12 | x12 | %33
 x12 | x12 | x12 | x12 | x12 | x12 | x12 | x12 | x12 | x12 | x12 | x12 | x12 | x12 | z4 E8- | %48
 E z z2 z4 z4 | x12 | x12 | x12 | x12 | x12 | z2 A2 A4 A^F ^G2 | z4 z2 z2 A,4 | x12 | %57
 z4 z FED E4- | E4 C4 D4 | C2 z2 z8 | z CD_E D8- | D8 D4- | D z z2 z2 z B A4- | A4 F8- | %64
 F z z2 z F_ED E[I:staff +1]DCB, |[I:staff -1] C8 B,2 z2 | x12 | x12 | x12 | x12 | z8 G,4 | %71
[I:staff +1] F,4 F,[I:staff -1]G,[I:staff +1]F,E, !fermata!F,4 |[M:6/16] x3 | x3 | x3 | x3 | x3 | %77
 x3 | x3 | x3 | x3 | x3 | x3 | x3 | x3 | x3 | x3 | x3 | x3 | x3 | x3 | x3 | x3 | x3 | x3 | x3 | %96
 x3 | x3 | x3 | x3 | x3 | x3 | x3 | x3 | x3 | x3 | x3 | x3 | x3 | x3 | x3 | x3 | x3 | x3 | x3 | %115
 x3 | x3 | x3 | x3 | x3 | x3 | x3 | x3 | x3 | x3 | x3 | x3 | x3 | x3 | x3 | x3 | x3 | x3 | x3 | %134
 x3 | x3 | x3 | x3 | x3 | x3 | x3 | x3 | x3 | x3 | x3 | x3 | x3 | x3 | x3 | x3 | x3 | x3 | x3 | %153
 x3 | x3 | x3 | x3 |[I:staff -1] z3/2 z/[I:staff +1] C/=B,/ | x3 | x3 | x3 | x3 | x3 | x3 | x3 | %165
 x3 | x3 | x3 | x3 | x3 | x3 | x3 |] %172
V:6
 x12 | x12 | x12 | x12 | x12 | x12 | x12 | x12 | x12 | x12 | x12 | x12 | x12 | x12 | x12 | x12 | %16
 x12 | x12 | x12 | x12 | x12 | x12 | x12 | x12 | x12 | x12 | x12 | x12 | x12 | x12 | x12 | x12 | %32
 x12 | x12 | x12 | x12 | x12 | x12 | x12 | x12 | x12 | x12 | x12 | x12 | x12 | x12 | x12 | x12 | %48
 x12 | x12 | x12 | x12 | x12 | x12 | x12 | x12 | x12 | x12 | x12 | x12 | x12 | x12 | x12 | x12 | %64
 x12 | x12 | x12 | z8 z E,F,G, | F,E,D,C, z8 | x12 | x12 | x12 |[M:6/16] x3 | x3 | x3 | x3 | x3 | %77
 x3 | x3 | x3 | x3 | x3 | x3 | x3 | x3 | x3 | x3 | x3 | x3 | x3 | x3 | x3 | x3 | x3 | x3 | x3 | %96
 x3 | x3 | x3 | x3 | x3 | x3 | x3 | x3 | x3 | x3 | x3 | x3 | x3 | x3 | x3 | x3 | x3 | x3 | x3 | %115
 x3 | x3 | x3 | x3 | x3 | x3 | x3 | x3 | x3 | x3 | x3 | x3 | x3 | x3 | x3 | x3 | x3 | x3 | x3 | %134
 x3 | x3 | x3 | x3 | x3 | x3 | x3 | x3 | x3 | x3 | x3 | x3 | x3 | x3 | x3 | x3 | x3 | x3 | x3 | %153
 x3 | x3 | x3 | x3 | x3 | x3 | x3 | x3 | x3 | x3 | x3 | x3 | x3 | x3 | x3 | x3 | x3 | x3 | x3 |] %172

